packages/icons/svg/Outline/pricetag.svg

<svg fill="none" height="24" viewBox="0 0 24 24" width="24" xmlns="http://www.w3.org/2000/svg"><path clip-rule="evenodd" d="m10.5605 8.43945c.586.585.586 1.536 0 2.12095-.58604.586-1.53504.586-2.12104 0-.586-.58495-.586-1.53595 0-2.12095.586-.586 1.535-.586 2.12104 0zm-4.72654 4.45195 6.03204 6.033 7.058-7.058-6.032-6.03295-7.78504-.726zm6.03204 8.1071c-.465 0-.929-.177-1.284-.53l-6.41701-6.418c-.165-.164-.267-.382-.289-.614l-.872-9.34402c-.027-.296.078-.589.289-.8s.503-.318.8-.288l9.34401.872c.232.021.449.123.614.288l6.417 6.41702c.343.343.532.799.532 1.285s-.189.942-.532 1.285l-7.317 7.316c-.354.354-.819.531-1.285.531z" fill="#6b7280" fill-rule="evenodd"/></svg>

<svg width="24" height="24" viewBox="0 0 24 24" fill="none" xmlns="http://www.w3.org/2000/svg">
<g id="Icon/Outline/pricetag">
<path id="Mask" fill-rule="evenodd" clip-rule="evenodd" d="M10.5604 8.4395C11.1464 9.0245 11.1464 9.9755 10.5604 10.5605C9.97443 11.1465 9.02543 11.1465 8.43943 10.5605C7.85343 9.9755 7.85343 9.0245 8.43943 8.4395C9.02543 7.8535 9.97443 7.8535 10.5604 8.4395ZM5.83393 12.8916L11.8659 18.9246L18.9239 11.8666L12.8919 5.83361L5.10693 5.1076L5.83393 12.8916ZM11.8659 20.9986C11.4009 20.9986 10.9369 20.8216 10.5819 20.4686L4.16493 14.0506C3.99993 13.8866 3.89793 13.6686 3.87593 13.4366L3.00393 4.0926C2.97693 3.7966 3.08193 3.50361 3.29293 3.2926C3.50393 3.0816 3.79593 2.9746 4.09293 3.0046L13.4369 3.8766C13.6689 3.89761 13.8859 3.99961 14.0509 4.16461L20.4679 10.5816C20.8109 10.9246 20.9999 11.3806 20.9999 11.8666C20.9999 12.3526 20.8109 12.8086 20.4679 13.1516L13.1509 20.4676C12.7969 20.8216 12.3319 20.9986 11.8659 20.9986Z" fill="#000000"/>
</g>
</svg>
